raw-svg/star-half-fill.svg

<svg fill="none" height="24" viewBox="0 0 24 24" width="24" xmlns="http://www.w3.org/2000/svg"><path d="m12.75 3.99995c0-.34858-.2402-.65121-.5796-.73039-.3395-.07918-.6888.08595-.843.39856l-2.42537 4.91603-5.41935.78352c-.28254.04085-.51739.23856-.60581.51-.08841.27143-.01506.56953.18922.76893l3.91828 3.825-.92365 5.4019c-.04809.2813.06758.5655.29842.7332.23083.1677.53684.1899.78948.0573l5.19998-2.73c.2468-.1296.4014-.3853.4014-.664z" fill="#000"/></svg>

<svg width="24" height="24" viewBox="0 0 24 24" fill="none" xmlns="http://www.w3.org/2000/svg">
<path d="M12.75 3.99995C12.75 3.65137 12.5098 3.34874 12.1704 3.26956C11.8309 3.19038 11.4816 3.35551 11.3274 3.66812L8.90203 8.58415L3.48268 9.36767C3.20014 9.40852 2.96529 9.60623 2.87687 9.87767C2.78846 10.1491 2.86181 10.4472 3.06609 10.6466L6.98437 14.4716L6.06072 19.8735C6.01263 20.1548 6.1283 20.439 6.35914 20.6067C6.58997 20.7744 6.89598 20.7966 7.14862 20.664L12.3486 17.934C12.5954 17.8044 12.75 17.5487 12.75 17.27V3.99995Z" fill="black"/>
</svg>
